X:685
T: SANCT MARTIN LAESST UNS SINGEN
N: E2101
O: Europa, Mitteleuropa, Deutschland
R: geistlich, Heiligen - Lied
M: 3/4
L: 1/4
K: C
G | G2G | A2B | c3 | c2
e | d2B | cA2 | G3 | z2
G | G2A | B2d | c3 | G2
A | G2E | FD2 | C3

